X:1
T:Title
%%score { 1 | ( 2 3 ) }
L:1/8
Q:1/4=108
M:3/4
K:C
V:1 treble nm="Grand Piano"
V:2 bass 
V:3 bass 
V:1
 [CE]2 [DF]2 [_E^F]2 | [FA]2 [EG]2 [EG]2 | [Ge]2 [Ec]2 [EG]2 | [FA]2 [EG]4 | G2 F2 F2 | F2 E2 E2 | %6
w: D.~B.~Towner * *||||||
 Dc B2 A2 | G6 | E2 [DF]2 [_E^F]2 | [FA]2 [EG]2 [EG]2 | [Ge]2 [Ec]2 [EG]2 | [FA]2 [EG]4 | %12
w: ||||||
 G2 F2 F2 | F2 E2 E2 | [B,D][DF] [CE]2 [B,D]2 | C6 | D2 E2 F2 | G2 A2 B2 | [Fd]2 [Ec]2 [CE]2 | %19
w: |||||||
 [EG]6 | [EG]2 [FA]2 E2 | F6 | d2 e2 d2 | [EG]6 | [CE]2 [DF]2 [_E^F]2 | [EG]2 [FA]2 [FB]2 | %26
w: |||||||
 [Fd]2 [Ec]2 [CE]2 | [EG]6 | [FA]2 [FB]2 [Gc]2 | d2 A2 c2 | Bf e2 d2 | [Ec]6 |] %32
w: ||||||
V:2
 [C,G,]2 [C,A,]2 [C,C]2 | [C,C]2 [C,C]2 [C,C]2 | [C,C]2 [C,G,]2 [C,C]2 | [C,C]2 [C,C]4 | %4
 [G,CE]2 [G,B,D]2 [G,D]2 | [C,G,D]2 [C,G,C]2 [C,G,C]2 | [G,B,][A,D] [D,G,D]2 [D,^F,C]2 | [G,B,]6 | %8
 [C,G,C]2 [C,A,]2 [C,C]2 | [C,C]2 [C,C]2 [C,C]2 | [C,C]2 [C,G,]2 [C,C]2 | [C,C]2 [C,C]4 | %12
 [G,CE]2 [G,B,D]2 [G,D]2 | [C,G,D]2 [C,G,C]2 [C,G,C]2 | [G,,G,]2 [G,,G,]2 [G,,F,]2 | [C,E,]6 | %16
 [G,B,]2[K:treble] [G,C]2 [G,D]2 | [G,B,F]2 [G,CF]2 [G,DF]2 | [C,C]2 [C,G,]2 [C,G,]2 | [C,C]6 | %20
 [C,C]2 [C,C]2 [C,G,C]2 | [D,G,B,]6 | [G,B,F]2 [G,B,G]2[K:bass] [G,,B,F]2 | [C,C]6 | %24
 [C,G,]2 [C,A,]2 [C,C]2 | [C,C]2 [C,C]2 [C,A,]2 | [C,A,]2 [C,G,]2 [C,G,]2 | [C,C]6 | %28
 [F,C]2 [D,G,]2 [E,G,]2 | [F,A,F]2 [F,DF]2 [F,A,F]2 | F[B,A] [G,CG]2 [G,F]2 | [C,G,]6 |] %32
V:3
 x6 | x6 | x6 | x6 | x6 | x6 | D,2 z2 z2 | x6 | x6 | x6 | x6 | x6 | x6 | x6 | x6 | x6 | %16
 x2[K:treble] x4 | x6 | x6 | x6 | x6 | x6 | x4[K:bass] x2 | x6 | x6 | x6 | x6 | x6 | x6 | x6 | %30
 G,2 z2 z2 | x6 |] %32

